usr/share/icons/biglinux-icons-material/scalable/mimetypes/text-x-qml.svg

<svg width="24" height="24" viewBox="0 0 24 24" fill="none" xmlns="http://www.w3.org/2000/svg">
<rect x="1" y="1" width="22" height="22" rx="6.6" fill="url(#paint0_radial_6_394)"/>
<path fill-rule="evenodd" clip-rule="evenodd" d="M5.46667 7C5.20813 7 5 7.20813 5 7.46667V16.8C5 17.0585 5.20813 17.2667 5.46667 17.2667H18.5333C18.7919 17.2667 19 17.0585 19 16.8V7.46667C19 7.20813 18.7919 7 18.5333 7H5.46667ZM14.8 7.46667C14.9238 7.46667 15.0425 7.51583 15.13 7.60335C15.2175 7.69087 15.2667 7.80957 15.2667 7.93333C15.2667 8.0571 15.2175 8.1758 15.13 8.26332C15.0425 8.35083 14.9238 8.4 14.8 8.4C14.6762 8.4 14.5575 8.35083 14.47 8.26332C14.3825 8.1758 14.3333 8.0571 14.3333 7.93333C14.3333 7.80957 14.3825 7.69087 14.47 7.60335C14.5575 7.51583 14.6762 7.46667 14.8 7.46667ZM16.2 7.46667C16.3238 7.46667 16.4425 7.51583 16.53 7.60335C16.6175 7.69087 16.6667 7.80957 16.6667 7.93333C16.6667 8.0571 16.6175 8.1758 16.53 8.26332C16.4425 8.35083 16.3238 8.4 16.2 8.4C16.0762 8.4 15.9575 8.35083 15.87 8.26332C15.7825 8.1758 15.7333 8.0571 15.7333 7.93333C15.7333 7.80957 15.7825 7.69087 15.87 7.60335C15.9575 7.51583 16.0762 7.46667 16.2 7.46667ZM17.6 7.46667C17.7238 7.46667 17.8425 7.51583 17.93 7.60335C18.0175 7.69087 18.0667 7.80957 18.0667 7.93333C18.0667 8.0571 18.0175 8.1758 17.93 8.26332C17.8425 8.35083 17.7238 8.4 17.6 8.4C17.4762 8.4 17.3575 8.35083 17.27 8.26332C17.1825 8.1758 17.1333 8.0571 17.1333 7.93333C17.1333 7.80957 17.1825 7.69087 17.27 7.60335C17.3575 7.51583 17.4762 7.46667 17.6 7.46667ZM5.46667 8.86667H8.26667V16.8H5.46667V8.86667ZM8.73333 8.86667H18.5333V16.8H8.73333V8.86667Z" fill="white"/>
<defs>
<radialGradient id="paint0_radial_6_394" cx="0" cy="0" r="1" gradientUnits="userSpaceOnUse" gradientTransform="translate(17.5 1) rotate(116.565) scale(24.5967)">
<stop stop-color="#B7E285"/>
<stop offset="1" stop-color="#82BE3D"/>
</radialGradient>
</defs>
</svg>

<svg xmlns="http://www.w3.org/2000/svg" width="24" height="24" fill="none"><rect width="22" height="22" x="1" y="1" fill="url(#a)" rx="6.6"/><path fill="#fff" fill-rule="evenodd" d="M5.467 7A.466.466 0 0 0 5 7.467V16.8c0 .258.208.467.467.467h13.066A.466.466 0 0 0 19 16.8V7.467A.466.466 0 0 0 18.533 7H5.467Zm9.333.467a.467.467 0 1 1 0 .933.467.467 0 0 1 0-.933Zm1.4 0a.467.467 0 1 1 0 .933.467.467 0 0 1 0-.933Zm1.4 0a.467.467 0 1 1 0 .933.467.467 0 0 1 0-.933Zm-12.133 1.4h2.8V16.8h-2.8V8.867Zm3.266 0h9.8V16.8h-9.8V8.867Z" clip-rule="evenodd"/><defs><radialGradient id="a" cx="0" cy="0" r="1" gradientTransform="rotate(116.565 8.441 5.908) scale(24.5967)" gradientUnits="userSpaceOnUse"><stop stop-color="#B7E285"/><stop offset="1" stop-color="#82BE3D"/></radialGradient></defs></svg>
